X: 26
T: Wakangtangka Hears Me
C: Teton Sioux band 1911-1914
N: Derived from sioux026.krn
O: South Dakota, U.S.A.
N: Teton Sioux Music by Frances Densmore, 1918
Z: transcribed to **kern format by Craig Sapp
L: 1/8
M: 2/4
Q: 1/4=58
K: F clef=bass
%%linebreak <none>
E [I:setbarnb 1]| 
E2(3E E D | 
D2(3A, A, A, | 
A,3A, | 
E2(3E E D | 
D2(3A, A, A, | 
A,3A, | 
B,2(3B, B, A, ||  
[M:3/4]A,2(3F, F, F, E, E, | 
D,2>D,2 E, D, ||  
[M:2/4]A,,2A,, A,, | 
(A,,4 | 
A,,2)A,/ A,3/ | 
(E/< D/) (E/< D/) E/- E3/ | 
(3E (E D) D3/ A,/ | 
A,< A, A, A, | 
D< A, B, B, | 
D< A, A, A, | 
(3:2:1F, F, (3:2:1F,/ E, E, ||  
[M:3/4]D,2>D,2 E, D, ||  
[M:2/4]A,,2A,, A,, | 
A,,4 |]  



